X:1
T:Mentre la notte
T:Mentre la notte
T:Giovanni Ghizzolo
C:Giovanni Ghizzolo
%%score [ 1 2 ] { 3 | 4 }
L:1/8
Q:1/4=120
M:4/4
K:F
V:1 treble nm="Soprano" snm="S"
V:2 bass nm="Bass" snm="B"
V:3 treble nm="BC" snm="BC"
V:4 bass 
V:1
"^Editor: André Vierendeels (07/05/07)\nBasso Continuo: André Vierendeels""^Source: Madrigali et Arie---Libro primo--Venetia---A.Raverij. 1609." z2 c4 FG | %1
w: Men- tre la|
 A4 AcBA | c3 F G4 | G4 z2 GG | B2 AG A2 A2 | z ABc d3 B | c4 c4 | z2 d2 d4- | dddd _e/d/c/B/ A>B | %9
w: nt- te al suo- bel|man- toil mem-|bo in- ge-|ma- va di stel- le|un pas- to- rel di-|ce- a|di la-|* gri- me ver- san- * * * * *|
 c8- | c8- | cFFG G4 |[M:2/4] F4 :: z2 AA |[M:4/4] A2 Bc d4- | ddcB c4 | c4 z2 B2 | d4- ddcB | %18
w: ||* doun lar- go mem-|bo|San- te|chia- re del ciel|_ ve- ve fa- cel-|le voi|se _ teas- sai men|
 A2 A2 z2 A2 | A6 A2 | A2 B2 c4 | ccBA Bc d2- | dFFG G4 | A8 :| %24
w: bel- le de|gl'oc- chi|di co- le|i che qui sol bel- la par-|* vea gl'oc- chi mie-|i|
V:2
 z8 | z8 | z8 | z8 | z8 | z8 | z8 | z8 | z8 | z8 | z8 | z8 |[M:2/4] z4 :: z2 F,F, | %14
w: |||||||||||||San- te|
[M:4/4] F,2 G,A, B,4- | B,_E,E,D, F,4 | F,2"^b" E,2 G,4- | G,G,F,"^b"E, D,2 D,2 | z2 D,2 D,4- | %19
w: chia- re del ciel|_ vi- ve fa- cel-|le voi se|_ teas- sai men bel- le|de gl'oc-|
 D,2 D,2 D,2"^Note: original keys: Ut 1st, Fa 4rth" E,2 | F,4 F,F,E,D, | E,F, G,4 B,,2 | %22
w: * chi di co-|le- i che qui sol|bel- a par- vea|
 B,,2 A,,2 C,4 | F,,8 :| %24
w: gl'oc- chi mie-|i.|
V:3
 [F-Ac-]8 | [FAc]8 | [Ac]2 A2 [Ec]4 | [Gc]8 | G2 D2 [^FA]4 | [DA]4 [FB]2 [DB]2 | [FAc]8 | %7
 [DG]4 [DFA]4 | [Fd]4 [FA]4 | [EG]4 [FA]4 | G4 [EG]4 | [FB]2 [DB]2 [Ec]4 |[M:2/4] [EAc]4 :: [FA]4 | %14
[M:4/4] [FA]4 [DB]4 | [GB]4 [FB]4 | [FA]4 [DG]4 | G4 [FA]4 | [FA]8- | [FA]8- | [FA]8 | %21
 [Gc]6 [GB]2 | [FB]2 [FA]2 F2 [EG]2 | [FAc]8 :| %24
V:4
 F,8 | F,,8 | F,2 D,2 C,4 | C,4 _E,4 | D,4 D,,4 | z D,G,F, B,2 G,2 | F,4 F,,4 | B,,4 A,,4 | %8
 A,,4 F,,4 | C,2 B,,2 A,,2 F,2 | E,2 D,2 C,2 C2 | B,2 G,2 C2 C,2 |[M:2/4] F,4 :: z2 F,2 | %14
[M:4/4] F,2 G,A, B,4 | B,_E,E,D, F,4 | F,2 E,2 G,4 | G,G,F,E, D,4 | z2 D,2 D,4- | D,2 D,2 D,2 E,2 | %20
 F,4 F,2 E,D, | E,F, G,4 B,,2 | B,,2 A,,2 C,4 | F,,8 :| %24

